svg/400/outlined/percent-fill.svg

<svg xmlns="http://www.w3.org/2000/svg" width="48" height="48" viewBox="0 -960 960 960"><path d="M289.899-540Q236-540 198-578.101t-38-92Q160-724 198.101-762t92-38Q344-800 382-761.899t38 92Q420-616 381.899-578t-92 38Zm-.017-60Q319-600 339.5-620.382q20.5-20.383 20.5-49.5Q360-699 339.618-719.5q-20.383-20.5-49.5-20.5Q261-740 240.5-719.618q-20.5 20.383-20.5 49.5Q220-641 240.382-620.5q20.383 20.5 49.5 20.5Zm380.017 440Q616-160 578-198.101t-38-92Q540-344 578.101-382t92-38Q724-420 762-381.899t38 92Q800-236 761.899-198t-92 38Zm-.017-60Q699-220 719.5-240.382q20.5-20.383 20.5-49.5Q740-319 719.618-339.5q-20.383-20.5-49.5-20.5Q641-360 620.5-339.618q-20.5 20.383-20.5 49.5Q600-261 620.382-240.5q20.383 20.5 49.5 20.5ZM202-160l-42-42 598-598 42 42-598 598Z"/></svg>

<svg xmlns="http://www.w3.org/2000/svg" width="48" height="48" viewBox="0 -960 960 960"><path d="M289.9-540q-53.9 0-91.9-38.1-38-38.1-38-92t38.1-91.9q38.1-38 92-38t91.9 38.1q38 38.1 38 92T381.9-578q-38.1 38-92 38Zm-.02-60q29.12 0 49.62-20.38 20.5-20.38 20.5-49.5t-20.38-49.62q-20.38-20.5-49.5-20.5t-49.62 20.38q-20.5 20.38-20.5 49.5t20.38 49.62q20.38 20.5 49.5 20.5ZM669.9-160q-53.9 0-91.9-38.1-38-38.1-38-92t38.1-91.9q38.1-38 92-38t91.9 38.1q38 38.1 38 92T761.9-198q-38.1 38-92 38Zm-.02-60q29.12 0 49.62-20.38 20.5-20.38 20.5-49.5t-20.38-49.62q-20.38-20.5-49.5-20.5t-49.62 20.38q-20.5 20.38-20.5 49.5t20.38 49.62q20.38 20.5 49.5 20.5ZM202-160l-42-42 598-598 42 42-598 598Z"/></svg>
